svgs/thin/tablet-screen-button.svg

<svg xmlns="http://www.w3.org/2000/svg" viewBox="0 0 448 512"><!-- Font Awesome Pro 6.0.0-alpha2 by @fontawesome - https://fontawesome.com License - https://fontawesome.com/license (Commercial License) --><path d="M400 0H48C21.5 0 0 21.5 0 48V464C0 490.5 21.5 512 48 512H400C426.5 512 448 490.5 448 464V48C448 21.5 426.5 0 400 0ZM432 464C432 481.645 417.645 496 400 496H48C30.355 496 16 481.645 16 464V368H432V464ZM432 352H16V48C16 30.355 30.355 16 48 16H400C417.645 16 432 30.355 432 48V352ZM224 464C241.674 464 256 449.672 256 432S241.674 400 224 400C206.328 400 192 414.328 192 432S206.328 464 224 464ZM224 416C232.822 416 240 423.176 240 432S232.822 448 224 448S208 440.824 208 432S215.178 416 224 416Z"/></svg>

<svg xmlns="http://www.w3.org/2000/svg" viewBox="0 0 448 512"><!--! Font Awesome Pro 6.3.0 by @fontawesome - https://fontawesome.com License - https://fontawesome.com/license (Commercial License) Copyright 2023 Fonticons, Inc. --><path d="M400 0h-352C21.5 0 0 21.5 0 48v416C0 490.5 21.5 512 48 512h352c26.5 0 48-21.5 48-48v-416C448 21.5 426.5 0 400 0zM432 464c0 17.64-14.36 32-32 32h-352c-17.64 0-32-14.36-32-32v-96h416V464zM432 352h-416V48c0-17.64 14.36-32 32-32h352c17.64 0 32 14.36 32 32V352zM224 464c17.67 0 32-14.33 32-32s-14.33-32-32-32c-17.67 0-32 14.33-32 32S206.3 464 224 464zM224 416c8.822 0 16 7.176 16 15.1S232.8 448 224 448s-16-7.176-16-16S215.2 416 224 416z"/></svg>
